src/images/flask.svg

<svg enable-background="new 0 0 87.5 100" viewBox="0 0 87.5 100" xmlns="http://www.w3.org/2000/svg"><path d="m85.4 78.8-22.9-36.8v-29.5h1.6c2.6 0 4.7-2.1 4.7-4.7v-3.1c0-2.6-2.1-4.7-4.7-4.7h-40.7c-2.6 0-4.7 2.1-4.7 4.7v3.1c0 2.6 2.1 4.7 4.7 4.7h1.6v29.5l-22.9 36.8c-5.7 9.2.9 21.2 11.7 21.2h59.8c10.9 0 17.5-12 11.8-21.2zm-58.5-16.3 9.4-15.2c.7-1 1.1-2.3 1.1-3.6v-31.2h12.6v31.2c0 1.3.4 2.6 1.1 3.6l9.4 15.2z" fill="#facb0e"/></svg>

<?xml version="1.0" encoding="utf-8"?>
<!-- Generator: Adobe Illustrator 24.1.3, SVG Export Plug-In . SVG Version: 6.00 Build 0)  -->
<svg version="1.1" id="Layer_1" xmlns="http://www.w3.org/2000/svg" xmlns:xlink="http://www.w3.org/1999/xlink" x="0px" y="0px"
	 viewBox="0 0 87.5 100" style="enable-background:new 0 0 87.5 100;" xml:space="preserve">
<style type="text/css">
	.st0{fill:#FACB0E;}
</style>
<path class="st0" d="M85.4,78.8L62.5,42V12.5h1.6c2.6,0,4.7-2.1,4.7-4.7V4.7c0-2.6-2.1-4.7-4.7-4.7H23.4c-2.6,0-4.7,2.1-4.7,4.7v3.1
	c0,2.6,2.1,4.7,4.7,4.7H25V42L2.1,78.8C-3.6,88,3,100,13.8,100h59.8C84.5,100,91.1,88,85.4,78.8z M26.9,62.5l9.4-15.2
	c0.7-1,1.1-2.3,1.1-3.6V12.5H50v31.2c0,1.3,0.4,2.6,1.1,3.6l9.4,15.2H26.9z"/>
</svg>
